app/svg/icon-search.svg

<svg width="16" height="16" viewBox="0 0 16 16" xmlns="http://www.w3.org/2000/svg">
<path d="M4.41793 3.64122C4.18718 3.41028 3.8128 3.41028 3.58205 3.64122C2.7253 4.49797 2.30421 5.69147 2.42658 6.91591C2.45712 7.22094 2.71408 7.44832 3.01418 7.44832C3.0339 7.44832 3.05377 7.44732 3.07349 7.44535C3.39843 7.41285 3.63546 7.12297 3.60296 6.79825C3.51587 5.9281 3.81302 5.082 4.41793 4.47707C4.64887 4.24635 4.64887 3.87194 4.41793 3.64122Z"></path>
<path d="M6.75863 0C3.03191 0 0 3.03191 0 6.75863C0 10.4853 3.03191 13.5173 6.75863 13.5173C10.4853 13.5173 13.5173 10.4853 13.5173 6.75863C13.5173 3.03191 10.4853 0 6.75863 0ZM6.75863 12.335C3.68375 12.335 1.18228 9.8335 1.18228 6.75863C1.18228 3.68375 3.68375 1.18228 6.75863 1.18228C9.83331 1.18228 12.335 3.68375 12.335 6.75863C12.335 9.8335 9.8335 12.335 6.75863 12.335Z"></path>
<path d="M15.8266 14.9907L11.531 10.6952C11.3001 10.4642 10.9261 10.4642 10.6952 10.6952C10.4642 10.9259 10.4642 11.3003 10.6952 11.5311L14.9908 15.8266C15.1062 15.9421 15.2574 15.9998 15.4087 15.9998C15.56 15.9998 15.7112 15.9421 15.8266 15.8266C16.0575 15.5959 16.0575 15.2215 15.8266 14.9907Z"></path>
</svg>

<svg width="16" height="16" xmlns="http://www.w3.org/2000/svg"><path d="M4.418 3.641a.59.59 0 00-.836 0 4.04 4.04 0 00-1.155 3.275.591.591 0 101.176-.118c-.087-.87.21-1.716.815-2.32a.59.59 0 000-.837z"></path><path d="M6.759 0A6.766 6.766 0 000 6.759a6.766 6.766 0 006.759 6.758 6.766 6.766 0 006.758-6.758A6.766 6.766 0 006.76 0zm0 12.335a5.583 5.583 0 01-5.577-5.576A5.583 5.583 0 016.76 1.182a5.583 5.583 0 015.576 5.577 5.583 5.583 0 01-5.576 5.576z"></path><path d="M15.827 14.99l-4.296-4.295a.59.59 0 10-.836.836l4.296 4.296a.589.589 0 00.836 0 .59.59 0 000-.836z"></path></svg>
